images/instagram_color_white.svg

<svg width="16" height="14" viewBox="0 0 16 14" fill="none" xmlns="http://www.w3.org/2000/svg">
<path fill-rule="evenodd" clip-rule="evenodd" d="M8 0C3.58172 0 0 3.13401 0 7C0 10.866 3.58172 14 8 14C12.4183 14 16 10.866 16 7C16 3.13401 12.4183 0 8 0ZM6.24191 3.28901C6.69703 3.27089 6.84245 3.26646 8.00122 3.26646H7.99988C9.15901 3.26646 9.3039 3.27089 9.75901 3.28901C10.2132 3.30721 10.5235 3.37014 10.7955 3.46246C11.0764 3.55774 11.3137 3.68529 11.551 3.89296C11.7884 4.10048 11.9341 4.30877 12.0435 4.55431C12.1484 4.79169 12.2204 5.06299 12.2417 5.46043C12.2621 5.85866 12.2675 5.98591 12.2675 6.99983C12.2675 8.01375 12.2621 8.14069 12.2417 8.53891C12.2204 8.9362 12.1484 9.20757 12.0435 9.44503C11.9341 9.6905 11.7884 9.89879 11.551 10.1063C11.314 10.314 11.0763 10.4418 10.7957 10.5372C10.5243 10.6295 10.2139 10.6924 9.75963 10.7106C9.30452 10.7288 9.15954 10.7332 8.00068 10.7332C6.84201 10.7332 6.69667 10.7288 6.24156 10.7106C5.78742 10.6924 5.47728 10.6295 5.20581 10.5372C4.92536 10.4418 4.68732 10.314 4.45025 10.1063C4.213 9.89879 4.06722 9.6905 3.95815 9.44495C3.85273 9.20757 3.78082 8.93628 3.75993 8.53883C3.73931 8.14061 3.73415 8.01375 3.73415 6.99983C3.73415 5.98591 3.73949 5.85858 3.75984 5.46036C3.78029 5.06306 3.85229 4.79169 3.95807 4.55424C4.0674 4.30877 4.21318 4.10048 4.45051 3.89296C4.68767 3.68537 4.92572 3.55782 5.20634 3.46246C5.47764 3.37014 5.78768 3.30721 6.24191 3.28901Z" fill="#4F4F4F"/>
<path fill-rule="evenodd" clip-rule="evenodd" d="M7.61506 3.93941L7.85561 3.93937L7.99781 3.93941C9.13703 3.93941 9.27205 3.94299 9.72192 3.96088C10.1379 3.97752 10.3637 4.03834 10.5141 4.08944C10.7132 4.15711 10.8552 4.238 11.0044 4.36867C11.1538 4.49934 11.2462 4.62378 11.3237 4.79801C11.3821 4.92945 11.4517 5.12701 11.4707 5.49102C11.4911 5.88458 11.4955 6.0028 11.4955 6.99914C11.4955 7.99549 11.4911 8.11371 11.4707 8.50727C11.4516 8.87127 11.3821 9.06883 11.3237 9.20028C11.2464 9.3745 11.1538 9.49856 11.0044 9.62915C10.8551 9.75982 10.7133 9.84071 10.5141 9.90837C10.3639 9.95971 10.1379 10.0204 9.72192 10.037C9.27214 10.0549 9.13703 10.0588 7.99781 10.0588C6.85851 10.0588 6.72349 10.0549 6.27371 10.037C5.8577 10.0202 5.63192 9.9594 5.48143 9.9083C5.28232 9.84063 5.1401 9.75974 4.99076 9.62907C4.84143 9.4984 4.74898 9.37427 4.67147 9.19997C4.61307 9.06852 4.54347 8.87096 4.52453 8.50696C4.50409 8.1134 4.5 7.99517 4.5 6.99821C4.5 6.00124 4.50409 5.88364 4.52453 5.49008C4.54356 5.12608 4.61307 4.92852 4.67147 4.79692C4.7488 4.62269 4.84143 4.49825 4.99076 4.36758C5.1401 4.23691 5.28232 4.15602 5.48143 4.0882C5.63183 4.03687 5.8577 3.9762 6.27371 3.95948C6.66731 3.94392 6.81985 3.93925 7.61506 3.93848V3.93941ZM10.2754 4.55946C9.99268 4.55946 9.76335 4.7599 9.76335 5.00731C9.76335 5.25465 9.99268 5.45532 10.2754 5.45532C10.558 5.45532 10.7874 5.25465 10.7874 5.00731C10.7874 4.75997 10.558 4.5593 10.2754 4.5593V4.55946ZM5.80676 6.99981C5.80676 5.94104 6.78779 5.08261 7.9978 5.08257C9.20786 5.08257 10.1887 5.94101 10.1887 6.99981C10.1887 8.05861 9.20795 8.91667 7.99789 8.91667C6.78783 8.91667 5.80676 8.05861 5.80676 6.99981Z" fill="#4F4F4F"/>
<path d="M8.00036 5.75537C8.78579 5.75537 9.4226 6.3125 9.4226 6.99983C9.4226 7.68708 8.78579 8.24429 8.00036 8.24429C7.21484 8.24429 6.57812 7.68708 6.57812 6.99983C6.57812 6.3125 7.21484 5.75537 8.00036 5.75537Z" fill="#4F4F4F"/>
</svg>

<svg width="16" height="14" fill="none" xmlns="http://www.w3.org/2000/svg"><path fill-rule="evenodd" clip-rule="evenodd" d="M8 0C3.582 0 0 3.134 0 7s3.582 7 8 7 8-3.134 8-7-3.582-7-8-7zM6.242 3.289c.455-.018.6-.023 1.76-.023H8c1.159 0 1.304.005 1.759.023.454.018.764.081 1.037.173.28.096.518.223.755.431.237.207.383.416.492.661.105.238.177.509.199.906.02.399.025.526.025 1.54s-.005 1.14-.025 1.539a2.467 2.467 0 01-.199.906 1.826 1.826 0 01-.492.661 2.137 2.137 0 01-.755.431 3.53 3.53 0 01-1.036.174c-.455.018-.6.022-1.76.022-1.158 0-1.303-.004-1.758-.022a3.53 3.53 0 01-1.036-.174 2.14 2.14 0 01-.756-.43 1.825 1.825 0 01-.492-.662 2.447 2.447 0 01-.198-.906c-.02-.398-.026-.525-.026-1.54 0-1.013.005-1.14.026-1.539.02-.397.092-.668.198-.906.11-.245.255-.454.493-.661a2.14 2.14 0 01.755-.43 3.525 3.525 0 011.036-.174z" fill="#4F4F4F"/><path fill-rule="evenodd" clip-rule="evenodd" d="M7.615 3.94h.383c1.139 0 1.274.003 1.724.02.416.018.642.078.792.13.2.067.341.148.49.279.15.13.242.255.32.429.058.131.128.329.147.693.02.394.024.512.024 1.508s-.004 1.115-.024 1.508c-.02.364-.089.562-.147.693-.078.175-.17.299-.32.43a1.35 1.35 0 01-.49.278c-.15.052-.376.112-.792.129-.45.018-.585.022-1.724.022-1.14 0-1.275-.004-1.724-.022-.416-.017-.642-.078-.793-.129a1.353 1.353 0 01-.49-.279 1.155 1.155 0 01-.32-.429c-.058-.131-.128-.329-.146-.693-.02-.394-.025-.512-.025-1.509 0-.997.004-1.114.025-1.508.019-.364.088-.561.146-.693.078-.174.17-.299.32-.43.15-.13.291-.211.49-.279.15-.051.377-.112.793-.129.393-.015.546-.02 1.341-.02zm2.66.62c-.282 0-.512.2-.512.447 0 .248.23.448.512.448.283 0 .512-.2.512-.448 0-.247-.229-.448-.512-.448zM5.807 7c0-1.059.98-1.917 2.19-1.917S10.19 5.94 10.19 7c0 1.059-.981 1.917-2.191 1.917S5.807 8.059 5.807 7z" fill="#4F4F4F"/><path d="M8 5.755c.786 0 1.423.558 1.423 1.245S8.786 8.244 8 8.244c-.785 0-1.422-.557-1.422-1.244 0-.688.637-1.245 1.422-1.245z" fill="#4F4F4F"/></svg>
